X:1
T:Highland Mary
T:Highland Mary
T:New England
C:New England
L:1/8
M:4/4
K:A
V:1 treble 
V:1
|: E2 |"A" A2 BA"E" FE D2 |"A" A2 Bc"D" d2 cd |"A" e3 f edcB |"A" A2 c2"E" E2 E2 | %5
"A" A2 BA"E" FE D2 |"A" A2 Bc"D" d2 cd |"A" e3 f edcB |"E" A2 G2"A" A2 :: E2 |"A" ABcd e2 de | %11
"D" f2 e2"E" d2 cd |"A" e3 f edcB |"A" A2 c2"E" E2 E2 |"A" A2 BA"E" FE D2 |"A" A2 Bc"D" d2 cd | %16
"A" e3 f edcB |"E" A2 G2"A" A2 :| %18

